agir/front/components/genericComponents/logos/action-populaire_primary_mini.svg

<svg width="52" height="52" viewBox="0 0 52 52" fill="none" xmlns="http://www.w3.org/2000/svg">
<rect width="52" height="52" rx="11.0555" fill="#F4ED0F"/>
<g clip-path="url(#clip0)">
<path d="M29.419 42.449L21.3668 34.4246C16.9197 29.9929 16.8848 22.8425 21.2888 18.4537C25.6929 14.0649 32.8682 14.0996 37.3153 18.5313C41.7624 22.9631 41.7973 30.1135 37.3932 34.5023L29.419 42.449Z" fill="white"/>
<path fill-rule="evenodd" clip-rule="evenodd" d="M17.3593 28.663L23.7141 34.9958L30.0689 28.663C33.5786 25.1655 33.5786 19.4949 30.0689 15.9974C26.5593 12.4999 20.869 12.4999 17.3593 15.9974C13.8497 19.4949 13.8497 25.1655 17.3593 28.663ZM23.7141 38.8237L31.9895 30.577C36.5599 26.0224 36.5599 18.638 31.9895 14.0835C27.4191 9.52898 20.0091 9.52898 15.4388 14.0835C10.8684 18.6381 10.8684 26.0224 15.4388 30.577L23.7141 38.8237Z" fill="#000A2C"/>
</g>
<defs>
<clipPath id="clip0">
<rect width="28.9184" height="31.8367" fill="white" transform="translate(11.9386 10.6123)"/>
</clipPath>
</defs>
</svg>

<svg width="52" height="52" fill="none" xmlns="http://www.w3.org/2000/svg"><rect width="52" height="52" rx="11.056" fill="#F4ED0F"/><g clip-path="url(#a)"><path d="m29.419 42.449-8.052-8.024c-4.447-4.432-4.482-11.582-.078-15.971 4.404-4.39 11.58-4.354 16.026.077 4.447 4.432 4.482 11.582.078 15.971L29.42 42.45Z" fill="#fff"/><path fill-rule="evenodd" clip-rule="evenodd" d="m17.36 28.663 6.354 6.333 6.355-6.333a8.934 8.934 0 0 0 0-12.666c-3.51-3.497-9.2-3.497-12.71 0a8.934 8.934 0 0 0 0 12.666Zm6.354 10.16 8.276-8.246a11.634 11.634 0 0 0 0-16.494c-4.57-4.554-11.98-4.554-16.551 0a11.634 11.634 0 0 0 0 16.494l8.275 8.247Z" fill="#000A2C"/></g><defs><clipPath id="a"><path fill="#fff" transform="translate(11.939 10.612)" d="M0 0h28.918v31.837H0z"/></clipPath></defs></svg>
